icons/bag-star.svg

<svg xmlns="http://www.w3.org/2000/svg" width="24" height="24" viewBox="0 0 24 24">
  <path d="M14,2 C15.5976809,2 16.9036609,3.24891996 16.9949073,4.82372721 L17,5 L17,6 L20,6 C21.1045695,6 22,6.8954305 22,8 L22,20 C22,21.1045695 21.1045695,22 20,22 L4,22 C2.8954305,22 2,21.1045695 2,20 L2,8 C2,6.8954305 2.8954305,6 4,6 L7,6 L7,5 C7,3.40231912 8.24891996,2.09633912 9.82372721,2.00509269 L10,2 L14,2 Z M12.2212829,10.1814077 C11.973656,10.0591965 11.6738431,10.160866 11.551632,10.4084929 L11.551632,10.4084929 L10.6774832,12.1797118 L8.72282709,12.4637399 C8.61400857,12.4795522 8.51343737,12.5307958 8.43668307,12.6095376 C8.24393246,12.8072794 8.24797861,13.123836 8.4457204,13.3165866 L8.4457204,13.3165866 L9.86012284,14.6952882 L9.52622772,16.6420462 C9.50763929,16.750425 9.52529663,16.861909 9.57646617,16.9592393 C9.70496657,17.2036616 10.0072801,17.2976348 10.2517024,17.1691344 L10.2517024,17.1691344 L12,16.25 L13.7482976,17.1691344 C13.8456278,17.220304 13.9571118,17.2379613 14.0654907,17.2193729 C14.3376589,17.1726924 14.5204528,16.9142144 14.4737723,16.6420462 L14.4737723,16.6420462 L14.1398772,14.6952882 L15.5542796,13.3165866 C15.6330214,13.2398323 15.684265,13.1392611 15.7000773,13.0304426 C15.7397861,12.7571702 15.5504453,12.5034487 15.2771729,12.4637399 L15.2771729,12.4637399 L13.3225168,12.1797118 L12.448368,10.4084929 C12.3997029,10.3098866 12.3198892,10.2300728 12.2212829,10.1814077 Z M14,4 L10,4 C9.48716416,4 9.06449284,4.38604019 9.00672773,4.88337887 L9,5 L9,6 L15,6 L15,5 C15,4.48716416 14.6139598,4.06449284 14.1166211,4.00672773 L14,4 Z"/>
</svg>

<svg xmlns="http://www.w3.org/2000/svg" viewBox="0 0 24 24">
  <path d="M14 2a3 3 0 0 1 3 2.82V6h3a2 2 0 0 1 2 2v12a2 2 0 0 1-2 2H4a2 2 0 0 1-2-2V8c0-1.1.9-2 2-2h3V5a3 3 0 0 1 2.82-3H14zm-1.78 8.18a.5.5 0 0 0-.67.23l-.87 1.77-1.96.28a.5.5 0 0 0-.27.86l1.41 1.38-.33 1.94a.5.5 0 0 0 .72.53l1.75-.92 1.75.92a.5.5 0 0 0 .72-.53l-.33-1.94 1.41-1.38a.5.5 0 0 0-.27-.86l-1.96-.28-.87-1.77a.5.5 0 0 0-.23-.23zM14 4h-4a1 1 0 0 0-1 .88V6h6V5a1 1 0 0 0-.88-1H14z"/>
</svg>
